_inc/systems/logos/gamecom.svg

<svg xmlns="http://www.w3.org/2000/svg" id="Layer_1" x="0" y="0" viewBox="0 0 3840 1052.6"><style>.st0{fill:red}</style><path d="M1178.2 307.5h72.6v369.4h-72.6z" style="fill:#fff" transform="rotate(90 1214.55 492.17)"/><path d="M412.2 455.9h-91.4v450.6c0 40.4-33.1 73.5-73.5 73.5H39.8v72.6H271c78 0 141.3-63.2 141.3-141.3V455.9zm1165.6 428h-91.4V602c0-40.4-33.1-73.5-73.5-73.5h-207.6v-72.6h231.2c78 0 141.3 63.2 141.3 141.3zm-679.5 0h-91.4V602c0-40.4-33.1-73.5-73.5-73.5H525.8v-72.6H757c78 0 141.3 63.2 141.3 141.3z" style="fill:#fff"/><path d="M1838.5 529.3h72.6v281.2h-72.6z" style="fill:#fff" transform="rotate(90 1874.77 669.9)"/><path d="M898.3 706.2v-72.6H628.8c-69.1 0-125.2 56-125.2 125.2 0 69.1 56 125.2 125.2 125.2h269.5v-72.6H646.9c-28.7 0-51.9-23.2-51.9-51.9v-1.3c0-28.7 23.2-51.9 51.9-51.9h251.4zm347.9-250.3h91.4V884h-91.4zm-240.3 0h91.4V884h-91.4zm2692.8 0H3268V884h91.4V528.5h148.9V884h91.4V528.5h75.4c40.4 0 73.5 33.1 73.5 73.5v282h91.4V597.1c0-78-63.2-141.2-141.3-141.2M207.5 528.5h204.7v-72.6H174.7C60.6 455.9 0 558.2 0 669.9s60.6 214 174.7 214h237.5v-72.6H207.5c-17.6 0-104.9-8.7-104.9-141.4s87.3-141.4 104.9-141.4m1668.6 0h139.2v-72.6h-172.1c-114.1 0-174.7 102.3-174.7 214s60.6 214 174.7 214h172.1v-72.6h-139.2c-17.6 0-104.9-8.7-104.9-141.4s87.3-141.4 104.9-141.4m632.2 0h139.2v-72.6h-172.1c-114.1 0-174.7 102.3-174.7 214s60.6 214 174.7 214h172.1v-72.6h-139.2c-17.6 0-104.9-8.7-104.9-141.4s87.3-141.4 104.9-141.4m444.8-76.1c-137.6 0-225 80.5-225 225s87.4 225 225 225 225-80.4 225-225c-.1-144.5-87.5-225-225-225m0 381.1c-86 0-127.7-58.2-127.7-156 0-97.9 41.7-156 127.7-156s127.7 58.2 127.7 156c-.1 97.8-41.7 156-127.7 156" style="fill:#fff"/><circle cx="2151.1" cy="864.1" r="63.9" class="st0" style="fill:#fff"/><path d="M2198.3 821a63.6 63.6 0 0 1 16.7 43 63.89 63.89 0 0 1-119.3 31.8" style="fill:#fff"/><path d="M2282.6 774.5c-12.1-21-77.8 6.7-147.5 59.8S2013 945.6 2033 963.2c24.8 21.9 88.9-8.9 155.3-59 57.5-43.4 103.3-114 94.3-129.7m-106 118.7c-57.6 43.5-117.6 69.1-132 58.1-18-13.6 32-64.1 92.5-110.1s117.1-74.6 125.8-58.7c6.5 11.8-36.4 73-86.3 110.7" style="fill:#fff"/><path d="M2095.7 895.9a63.9 63.9 0 0 1 55.4-95.7c18.7 0 35.5 8 47.2 20.9" style="fill:#fff"/><path d="M1238.2 0h101.7v353.6h-101.7zM958.9 86.7h74.3v266.9h101.7V86.7h74.3V0H958.9zM1518.7 0c-101.3 0-155.2 88.4-155.2 176.8s54 176.8 155.2 176.8c0-14.5 0 0 0 0h182.8V133.4h-179.4v86.7h77.7v46.8H1548c-120.1 0-120.1-180.2 0-180.2h153.5V0zs0 14.5 0 0m1302 148.5c-28.2-15-62.1 6.4-62.1 38.3v6.6c0 12.6 6.3 23.9 15.7 32.2 14 12.4 8.7 41.2-15.7 41.2H2297V233c0-14-8-26.1-19.6-32 25.7-20.8 41.8-55.9 41.8-90.9 0-55-39.3-110.1-93.8-110.1h-213.2v239.5h101.7V86.7h76.2c12.7 0 24 9.5 24.7 22.1.7 13.5-10 24.6-23.3 24.6H2142v86.7h28.6a24.8 24.8 0 0 1 24.8 24.8v108.7h563.3c73.4 0 122.6-55 122.6-110.1-.2-37.4-23-74.9-60.6-95" class="st0" style="fill:#fff"/><path d="M1175.8 93.5c-18.4 0-33.4 15-33.4 33.4s15 33.4 33.4 33.4 33.4-15 33.4-33.4c0-18.5-15-33.4-33.4-33.4m-183.5 0c-18.4 0-33.4 15-33.4 33.4s15 33.4 33.4 33.4 33.4-15 33.4-33.4c0-18.5-14.9-33.4-33.4-33.4m848.3 150c0-12.9 10.5-23.4 23.4-23.4h129.5v-86.7H1864c-12.9 0-23.4-10.5-23.4-23.4s10.5-23.4 23.4-23.4h129.5V0h-178.9c-50.4 0-91.2 40.9-91.2 91.2v13c0 40.1 31.4 72.5 41.3 72.5-9.9 0-41.3 32.5-41.3 72.5v13c0 50.4 40.8 91.2 91.2 91.2H2114v-86.7h-249.9a23.1 23.1 0 0 1-23.5-23.2" class="st0" style="fill:#fff"/></svg>

<?xml version="1.0" encoding="utf-8"?>
<svg version="1.1" id="Layer_1" x="0px" y="0px" viewBox="0 0 3840 1052.6" style="enable-background:new 0 0 3840 1052.6;" xmlns="http://www.w3.org/2000/svg">
  <style type="text/css">
	.st0{fill:#FF0000;}
	.st1{fill:#A7A9AC;}
	.st2{fill:#0072BC;}
	.st3{fill:#FFFFFF;}
	.st4{fill:#C4C4C4;}
</style>
  <rect x="1178.2" y="307.5" transform="matrix(0, 1, -1, 0, 1706.721436, -722.374695)" width="72.6" height="369.4" style="fill: rgb(255, 255, 255);"/>
  <path d="M 412.2 455.9 L 320.8 455.9 L 320.8 906.5 C 320.8 946.9 287.7 980 247.3 980 L 39.8 980 L 39.8 1052.6 L 271 1052.6 C 349 1052.6 412.3 989.4 412.3 911.3 L 412.3 455.9 L 412.2 455.9 Z" style="fill: rgb(255, 255, 255);"/>
  <path d="M 1577.8 883.9 L 1486.4 883.9 L 1486.4 602 C 1486.4 561.6 1453.3 528.5 1412.9 528.5 L 1205.3 528.5 L 1205.3 455.9 L 1436.5 455.9 C 1514.5 455.9 1577.8 519.1 1577.8 597.2 L 1577.8 883.9 Z" style="fill: rgb(255, 255, 255);"/>
  <path d="M 898.3 883.9 L 806.9 883.9 L 806.9 602 C 806.9 561.6 773.8 528.5 733.4 528.5 L 525.8 528.5 L 525.8 455.9 L 757 455.9 C 835 455.9 898.3 519.1 898.3 597.2 L 898.3 883.9 Z" style="fill: rgb(255, 255, 255);"/>
  <rect x="1838.5" y="529.3" transform="matrix(0, 1, -1, 0, 2544.672119, -1204.866089)" width="72.6" height="281.2" style="fill: rgb(255, 255, 255);"/>
  <path d="M 898.3 706.2 L 898.3 633.6 L 628.8 633.6 C 559.7 633.6 503.6 689.6 503.6 758.8 C 503.6 827.9 559.6 884 628.8 884 L 898.3 884 L 898.3 811.4 L 646.9 811.4 C 618.2 811.4 595 788.2 595 759.5 L 595 758.2 C 595 729.5 618.2 706.3 646.9 706.3 L 898.3 706.3 L 898.3 706.2 Z" style="fill: rgb(255, 255, 255);"/>
  <rect x="1246.2" y="455.9" width="91.4" height="428.1" style="fill: rgb(255, 255, 255);"/>
  <rect x="1005.9" y="455.9" width="91.4" height="428.1" style="fill: rgb(255, 255, 255);"/>
  <path d="M 3698.7 455.9 L 3268 455.9 L 3268 884 L 3359.4 884 L 3359.4 528.5 L 3508.3 528.5 L 3508.3 884 L 3599.7 884 L 3599.7 528.5 L 3675.1 528.5 C 3715.5 528.5 3748.6 561.6 3748.6 602 L 3748.6 884 L 3840 884 L 3840 597.1 C 3840 519.1 3776.8 455.9 3698.7 455.9 Z" style="fill: rgb(255, 255, 255);"/>
  <path d="M 207.5 528.5 C 259.1 528.5 412.2 528.5 412.2 528.5 L 412.2 455.9 L 174.7 455.9 C 60.6 455.9 0 558.2 0 669.9 C 0 781.6 60.6 883.9 174.7 883.9 L 412.2 883.9 L 412.2 811.3 C 412.2 811.3 259.1 811.3 207.5 811.3 C 189.9 811.3 102.6 802.6 102.6 669.9 C 102.6 537.2 189.9 528.5 207.5 528.5 Z" style="fill: rgb(255, 255, 255);"/>
  <path d="M 1876.1 528.5 C 1927.7 528.5 2015.3 528.5 2015.3 528.5 L 2015.3 455.9 L 1843.2 455.9 C 1729.1 455.9 1668.5 558.2 1668.5 669.9 C 1668.5 781.6 1729.1 883.9 1843.2 883.9 L 2015.3 883.9 L 2015.3 811.3 C 2015.3 811.3 1927.6 811.3 1876.1 811.3 C 1858.5 811.3 1771.2 802.6 1771.2 669.9 C 1771.2 537.2 1858.5 528.5 1876.1 528.5 Z" style="fill: rgb(255, 255, 255);"/>
  <path d="M 2508.3 528.5 C 2559.9 528.5 2647.5 528.5 2647.5 528.5 L 2647.5 455.9 L 2475.4 455.9 C 2361.3 455.9 2300.7 558.2 2300.7 669.9 C 2300.7 781.6 2361.3 883.9 2475.4 883.9 L 2647.5 883.9 L 2647.5 811.3 C 2647.5 811.3 2559.8 811.3 2508.3 811.3 C 2490.7 811.3 2403.4 802.6 2403.4 669.9 C 2403.4 537.2 2490.7 528.5 2508.3 528.5 Z" style="fill: rgb(255, 255, 255);"/>
  <path d="M 2953.1 452.4 C 2815.5 452.4 2728.1 532.9 2728.1 677.4 C 2728.1 821.9 2815.5 902.4 2953.1 902.4 C 3090.7 902.4 3178.1 822 3178.1 677.4 C 3178 532.9 3090.6 452.4 2953.1 452.4 Z M 2953.1 833.5 C 2867.1 833.5 2825.4 775.3 2825.4 677.5 C 2825.4 579.6 2867.1 521.5 2953.1 521.5 C 3039.1 521.5 3080.8 579.7 3080.8 677.5 C 3080.7 775.3 3039.1 833.5 2953.1 833.5 Z" style="fill: rgb(255, 255, 255);"/>
  <circle class="st0" cx="2151.1" cy="864.1" r="63.9" style="fill: rgb(255, 255, 255);"/>
  <path d="M 2198.3 821 C 2208.7 832.4 2215 847.5 2215 864 C 2215 899.3 2186.4 927.9 2151.1 927.9 C 2127.4 927.9 2106.7 915 2095.7 895.8" style="fill: rgb(255, 255, 255);"/>
  <path class="st1" d="M 2282.6 774.5 C 2270.5 753.5 2204.8 781.2 2135.1 834.3 C 2065.4 887.4 2013 945.6 2033 963.2 C 2057.8 985.1 2121.9 954.3 2188.3 904.2 C 2245.8 860.8 2291.6 790.2 2282.6 774.5 Z M 2176.6 893.2 C 2119 936.7 2059 962.3 2044.6 951.3 C 2026.6 937.7 2076.6 887.2 2137.1 841.2 C 2197.6 795.2 2254.2 766.6 2262.9 782.5 C 2269.4 794.3 2226.5 855.5 2176.6 893.2 Z" style="fill: rgb(255, 255, 255);"/>
  <path d="M 2095.7 895.9 C 2090.3 886.5 2087.2 875.7 2087.2 864.1 C 2087.2 828.8 2115.8 800.2 2151.1 800.2 C 2169.8 800.2 2186.6 808.2 2198.3 821.1" style="fill: rgb(255, 255, 255);"/>
  <rect x="1238.2" class="st0" width="101.7" height="353.6" style="fill: rgb(255, 255, 255);"/>
  <polygon class="st0" points="958.9 86.7 1033.2 86.7 1033.2 87.8 1033.2 351.4 1033.2 353.6 1134.9 353.6 1134.9 351.4 1134.9 87.8 1134.9 86.7 1209.2 86.7 1209.2 0 958.9 0" style="fill: rgb(255, 255, 255);"/>
  <path class="st0" d="M 1518.7 0 C 1417.4 0 1363.5 88.4 1363.5 176.8 C 1363.5 265.2 1417.5 353.6 1518.7 353.6 C 1518.7 339.1 1518.7 353.6 1518.7 353.6 L 1701.5 353.6 L 1701.5 351.4 L 1701.5 266.9 L 1701.5 220.1 L 1701.5 133.4 L 1522.1 133.4 L 1522.1 220.1 L 1599.8 220.1 L 1599.8 266.9 L 1548 266.9 C 1548 266.9 1548 266.9 1548 266.9 C 1427.9 266.9 1427.9 86.7 1548 86.7 L 1701.5 86.7 L 1701.5 0 L 1518.7 0 C 1518.7 0 1518.7 14.5 1518.7 0 Z" style="fill: rgb(255, 255, 255);"/>
  <path class="st0" d="M 2820.7 148.5 C 2792.5 133.5 2758.6 154.9 2758.6 186.8 C 2758.6 189 2758.6 191.2 2758.6 193.4 C 2758.6 206 2764.9 217.3 2774.3 225.6 C 2788.3 238 2783 266.8 2758.6 266.8 L 2297 266.8 L 2297 233 C 2297 219 2289 206.9 2277.4 201 C 2303.1 180.2 2319.2 145.1 2319.2 110.1 C 2319.2 55.1 2279.9 0 2225.4 0 L 2063 0 L 2012.2 0 L 2012.2 239.5 L 2113.9 239.5 L 2113.9 86.7 L 2190.1 86.7 C 2202.8 86.7 2214.1 96.2 2214.8 108.8 C 2215.5 122.3 2204.8 133.4 2191.5 133.4 L 2142 133.4 L 2142 220.1 L 2170.6 220.1 C 2184.3 220.1 2195.4 231.2 2195.4 244.9 L 2195.4 353.6 L 2297.1 353.6 L 2758.7 353.6 C 2832.1 353.6 2881.3 298.6 2881.3 243.5 C 2881.1 206.1 2858.3 168.6 2820.7 148.5 Z" style="fill: rgb(255, 255, 255);"/>
  <path class="st0" d="M 1175.8 93.5 C 1157.4 93.5 1142.4 108.5 1142.4 126.9 C 1142.4 145.3 1157.4 160.3 1175.8 160.3 C 1194.2 160.3 1209.2 145.3 1209.2 126.9 C 1209.2 108.4 1194.2 93.5 1175.8 93.5 Z" style="fill: rgb(255, 255, 255);"/>
  <path class="st0" d="M 992.3 93.5 C 973.9 93.5 958.9 108.5 958.9 126.9 C 958.9 145.3 973.9 160.3 992.3 160.3 C 1010.7 160.3 1025.7 145.3 1025.7 126.9 C 1025.7 108.4 1010.8 93.5 992.3 93.5 Z" style="fill: rgb(255, 255, 255);"/>
  <path class="st0" d="M 1840.6 243.5 C 1840.6 230.6 1851.1 220.1 1864 220.1 L 1993.5 220.1 L 1993.5 133.4 L 1864 133.4 C 1851.1 133.4 1840.6 122.9 1840.6 110 C 1840.6 97.1 1851.1 86.6 1864 86.6 L 1993.5 86.6 L 1993.5 0 L 1831.3 0 L 1814.6 0 C 1764.2 0 1723.4 40.9 1723.4 91.2 L 1723.4 104.2 C 1723.4 144.3 1754.8 176.7 1764.7 176.7 C 1754.8 176.7 1723.4 209.2 1723.4 249.2 L 1723.4 262.2 C 1723.4 312.6 1764.2 353.4 1814.6 353.4 L 1831.3 353.4 L 2114 353.4 L 2114 266.7 L 1864.1 266.7 C 1851 266.9 1840.6 256.4 1840.6 243.5 Z" style="fill: rgb(255, 255, 255);"/>
</svg>
